frontend/public/svg/interface/hide.svg

<svg width="150" height="145" viewBox="0 0 150 145" fill="none" xmlns="http://www.w3.org/2000/svg">
<g clip-path="url(#clip0)">
<path d="M39.0478 34.6819C39.0478 32.648 37.5864 31.3404 36.5421 29.8367C33.5166 25.4822 30.3701 21.2073 27.4421 16.7887C25.0542 13.3537 23.3755 9.48112 22.5031 5.39577C22.3673 4.65114 22.4115 3.88511 22.6324 3.16096C22.8534 2.4368 23.2449 1.77545 23.7739 1.23164C24.2851 0.680395 24.9511 0.2951 25.6855 0.126166C26.42 -0.0427667 27.1886 0.0124123 27.8911 0.28452C30.0721 1.24255 31.5861 2.93279 33.0442 4.66437C38.9053 11.6244 44.737 18.6093 50.5391 25.6194C56.114 32.325 61.7693 38.9673 67.204 45.7822C73.1106 53.1883 78.8006 60.7644 84.5921 68.2613C86.2148 70.3612 87.7679 72.5232 89.5143 74.517C97.2694 83.3697 104.225 92.8362 111.317 102.207C114.058 105.829 117.142 109.191 119.924 112.784C126.417 121.172 132.854 129.603 139.235 138.076C140.732 140.067 140.131 142.991 138.304 144.107C137.46 144.547 136.501 144.719 135.555 144.6C134.611 144.481 133.725 144.075 133.019 143.439C131.949 142.372 130.921 141.259 129.923 140.126C121.399 130.453 112.877 120.779 104.358 111.104C103.877 110.514 103.246 110.062 102.531 109.795C101.816 109.527 101.043 109.453 100.289 109.58C97.6683 110.015 95.0663 110.56 92.4526 111.042C78.2313 113.666 64.4377 111.717 50.9334 107.064C39.0212 102.959 27.6965 97.6374 17.4552 90.2495C14.3517 88.0674 11.4231 85.649 8.69545 83.0169C6.57809 80.8536 4.73744 78.4384 3.21508 75.8265C-0.133191 70.2531 0.262281 67.6586 4.86046 62.6825C13.3828 53.4909 23.0881 45.4595 33.7244 38.7964C35.6171 37.6027 37.9573 36.9449 39.0478 34.6819ZM59.904 58.3091C56.8622 53.4872 52.9713 49.3917 48.8565 45.5194C48.1701 44.8721 46.7158 44.7744 45.6506 44.8592C44.5253 45.0207 43.4424 45.3989 42.4625 45.9725C31.3038 51.7621 21.274 59.1519 11.8909 67.4463C11.5244 67.7421 11.222 68.1085 11.0016 68.5241C10.7813 68.939 10.6475 69.3941 10.6086 69.8621C10.5697 70.3301 10.6263 70.8014 10.7751 71.2467C10.9239 71.6921 11.1618 72.1031 11.4744 72.4553C13.9915 75.2821 16.8965 77.7426 20.1035 79.7642C31.2258 87.1618 43.3428 92.4517 56.1249 96.2165C66.4375 99.2518 76.9937 99.7949 87.6502 98.4303C88.4531 98.3572 89.2221 98.0749 89.88 97.6108C90.5378 97.1467 91.0602 96.5181 91.3947 95.7886C90.3478 94.4053 89.2052 92.921 88.0893 91.4172C85.2531 87.5948 82.0747 84.5556 76.686 86.0814C75.9345 86.1843 75.1732 86.1888 74.421 86.0943C66.3568 86.1008 56.593 79.4521 57.9893 67.2087C58.3244 64.2612 59.226 61.38 59.904 58.3066V58.3091Z" fill="black"/>
<path d="M120.901 100.556C118.15 99.0719 116.36 96.7189 114.748 94.0221C114.243 93.1955 114.048 92.2168 114.198 91.2607C114.348 90.3046 114.834 89.432 115.568 88.7976C115.891 88.5193 116.235 88.2662 116.598 88.0415C120.808 85.462 124.702 82.4066 128.205 78.9357C141.854 65.4895 141.113 68.7837 128.205 56.1423C120.202 48.3097 110.08 43.807 99.3736 40.7465C92.7877 38.8641 86.056 37.6969 79.1454 37.9629C77.2488 38.0367 75.3475 37.9939 73.4496 38.0399C70.5789 38.1105 68.3224 36.8244 66.4615 34.8125C65.4446 33.712 64.6267 32.4284 63.7151 31.2309C63.1504 30.4884 63.8394 28.8028 64.7724 28.4946C72.1769 26.0484 79.7674 26.3124 87.3306 27.2284C108.087 29.7426 125.533 39.1391 140.609 53.1951C143.076 55.4943 145.103 58.2926 147.147 60.9997C148.7 63.1812 149.52 65.7957 149.489 68.4685C149.52 69.9372 149.474 71.6591 148.761 72.8508C142.094 84.0022 134.4 94.2209 122.261 100.128C121.817 100.3 121.363 100.443 120.901 100.556Z" fill="black"/>
<path d="M96.9916 66.2163C96.8068 67.6812 95.715 70.9754 95.1697 70.3009C90.9073 65.0576 84.4704 57.3836 80.3836 52.0017C80.2157 51.7187 80.1214 51.3985 80.109 51.0701C80.0967 50.7417 80.1663 50.4155 80.312 50.1206C80.5703 49.8652 80.882 49.6689 81.2242 49.5453C81.5665 49.4218 81.9322 49.374 82.2946 49.4053C85.6656 49.9392 88.8005 51.4571 91.3029 53.7664C95.158 57.2775 97.5329 61.9193 96.9916 66.2163Z" fill="black"/>
</g>
<defs>
<clipPath id="clip0">
<rect width="149" height="145" fill="white" transform="translate(0.777344)"/>
</clipPath>
</defs>
</svg>

<svg xmlns="http://www.w3.org/2000/svg" width="150" height="145" fill="none" viewBox="0 0 150 145"><g fill="#000" clip-path="url(#a)"><path d="M39.048 34.682c0-2.034-1.462-3.342-2.506-4.845-3.025-4.355-6.172-8.63-9.1-13.048a31.5 31.5 0 0 1-4.939-11.393 4.74 4.74 0 0 1 1.27-4.164A3.77 3.77 0 0 1 27.89.285c2.182.958 3.696 2.648 5.154 4.38A3210 3210 0 0 1 50.54 25.618c5.575 6.706 11.23 13.348 16.665 20.163 5.907 7.406 11.597 14.982 17.388 22.48 1.623 2.1 3.176 4.261 4.922 6.255 7.755 8.853 14.711 18.32 21.803 27.69 2.741 3.622 5.825 6.984 8.607 10.577a2401 2401 0 0 1 19.311 25.292c1.497 1.991.896 4.915-.931 6.031a4.7 4.7 0 0 1-2.749.493 4.66 4.66 0 0 1-2.536-1.161 70 70 0 0 1-3.096-3.313 98270 98270 0 0 1-25.565-29.022 4.34 4.34 0 0 0-4.069-1.524c-2.62.435-5.223.98-7.836 1.462-14.222 2.624-28.015.675-41.52-3.978-11.912-4.105-23.236-9.427-33.478-16.814a73.5 73.5 0 0 1-8.76-7.233 36.7 36.7 0 0 1-5.48-7.19C-.133 70.253.262 67.659 4.86 62.683a142.6 142.6 0 0 1 28.864-23.887c1.893-1.193 4.233-1.851 5.324-4.114m20.856 23.627c-3.042-4.822-6.933-8.917-11.048-12.79-.686-.647-2.14-.745-3.205-.66a8.8 8.8 0 0 0-3.189 1.113c-11.158 5.79-21.188 13.18-30.571 21.474a3.48 3.48 0 0 0-1.282 2.416 3.46 3.46 0 0 0 .865 2.593 40.4 40.4 0 0 0 8.63 7.31c11.122 7.397 23.239 12.687 36.02 16.451 10.313 3.036 20.87 3.579 31.526 2.214a4.6 4.6 0 0 0 2.23-.82 4.55 4.55 0 0 0 1.515-1.821c-1.047-1.384-2.19-2.868-3.306-4.372-2.836-3.822-6.014-6.861-11.403-5.336a8.7 8.7 0 0 1-2.265.013c-8.064.007-17.828-6.642-16.432-18.885.335-2.948 1.237-5.829 1.915-8.902zm60.997 42.247c-2.751-1.484-4.541-3.837-6.153-6.534a4.08 4.08 0 0 1 .82-5.224 8 8 0 0 1 1.03-.757 64 64 0 0 0 11.607-9.105c13.649-13.446 12.908-10.152 0-22.794-8.003-7.832-18.125-12.335-28.831-15.396-6.586-1.882-13.318-3.05-20.229-2.783-1.896.074-3.797.03-5.695.077-2.871.07-5.128-1.216-6.989-3.227-1.016-1.101-1.834-2.385-2.746-3.582-.565-.743.124-2.428 1.057-2.736 7.405-2.447 14.995-2.183 22.559-1.267 20.756 2.515 38.202 11.911 53.278 25.967 2.467 2.3 4.494 5.098 6.538 7.805a12.63 12.63 0 0 1 2.342 7.469c.031 1.468-.015 3.19-.728 4.382-6.667 11.151-14.361 21.37-26.5 27.277q-.667.258-1.36.428"/><path d="M96.992 66.216c-.185 1.465-1.277 4.76-1.822 4.085-4.263-5.243-10.7-12.917-14.786-18.3a1.97 1.97 0 0 1-.072-1.88 2.51 2.51 0 0 1 1.983-.716 17.26 17.26 0 0 1 9.008 4.361c3.855 3.512 6.23 8.153 5.689 12.45"/></g><defs><clipPath id="a"><path fill="#fff" d="M.777 0h149v145h-149z"/></clipPath></defs></svg>
